lib/flags/sn-senegal.svg

<svg xmlns="http://www.w3.org/2000/svg" fill="none" aria-hidden="true" viewBox="0 0 42 30"><g id="Country=SN - Senegal, Size=sm (36x24)" filter="url(#filter0_dd_91_25010)"><g clip-path="url(#clip0_91_25010)"><g id="flag"><mask id="mask0_91_25010" width="36" height="24" x="3" y="2" maskUnits="userSpaceOnUse" style="mask-type:alpha"><rect id="mask" width="36" height="24" x="3" y="2" fill="white"/></mask><g mask="url(#mask0_91_25010)"><g id="contents"><path id="middle" fill="#FBCD17" fill-rule="evenodd" d="M14.25 2H27.75V26H14.25V2Z" clip-rule="evenodd"/><path id="Star 5" fill="#006923" fill-rule="evenodd" d="M21.0851 16.4906L17.1637 18.9083L18.4168 14.7673L15.5381 11.9791H19.436L21.0851 7.88428L22.7342 11.9791H26.6254L23.7534 14.7673L25.1918 18.6639L21.0851 16.4906Z" clip-rule="evenodd"/><path id="right" fill="#E11C1B" fill-rule="evenodd" d="M27.75 2H39V26H27.75V2Z" clip-rule="evenodd"/><path id="left" fill="#006923" fill-rule="evenodd" d="M3 2H14.25V26H3V2Z" clip-rule="evenodd"/></g></g></g></g></g><defs><filter id="filter0_dd_91_25010" width="42" height="30" x="0" y="0" color-interpolation-filters="sRGB" filterUnits="userSpaceOnUse"><feFlood flood-opacity="0" result="BackgroundImageFix"/><feColorMatrix in="SourceAlpha" result="hardAlpha" values="0 0 0 0 0 0 0 0 0 0 0 0 0 0 0 0 0 0 127 0"/><feOffset dy="1"/><feGaussianBlur stdDeviation="1"/><feColorMatrix values="0 0 0 0 0.0627451 0 0 0 0 0.0941176 0 0 0 0 0.156863 0 0 0 0.06 0"/><feBlend in2="BackgroundImageFix" result="effect1_dropShadow_91_25010"/><feColorMatrix in="SourceAlpha" result="hardAlpha" values="0 0 0 0 0 0 0 0 0 0 0 0 0 0 0 0 0 0 127 0"/><feOffset dy="1"/><feGaussianBlur stdDeviation="1.5"/><feColorMatrix values="0 0 0 0 0.0627451 0 0 0 0 0.0941176 0 0 0 0 0.156863 0 0 0 0.1 0"/><feBlend in2="effect1_dropShadow_91_25010" result="effect2_dropShadow_91_25010"/><feBlend in="SourceGraphic" in2="effect2_dropShadow_91_25010" result="shape"/></filter><clipPath id="clip0_91_25010"><rect width="36" height="24" x="3" y="2" fill="white" rx="2"/></clipPath></defs></svg>

<svg xmlns="http://www.w3.org/2000/svg" fill="none" aria-hidden="true" viewBox="0 0 42 30"><g filter="url(#a)"><g clip-path="url(#b)"><mask id="c" width="36" height="24" x="3" y="2" maskUnits="userSpaceOnUse" style="mask-type:alpha"><path fill="#fff" d="M3 2h36v24H3z"/></mask><g fill-rule="evenodd" clip-rule="evenodd" mask="url(#c)"><path fill="#FBCD17" d="M14.25 2h13.5v24h-13.5V2Z"/><path fill="#006923" d="m21.085 16.49-3.921 2.418 1.253-4.14-2.879-2.789h3.898l1.65-4.095 1.648 4.095h3.891l-2.872 2.788 1.439 3.897-4.107-2.173Z"/><path fill="#E11C1B" d="M27.75 2H39v24H27.75V2Z"/><path fill="#006923" d="M3 2h11.25v24H3V2Z"/></g></g></g><defs><clipPath id="b"><rect width="36" height="24" x="3" y="2" fill="#fff" rx="2"/></clipPath><filter id="a" width="42" height="30" x="0" y="0" color-interpolation-filters="sRGB" filterUnits="userSpaceOnUse"><feFlood flood-opacity="0" result="BackgroundImageFix"/><feColorMatrix in="SourceAlpha" result="hardAlpha" values="0 0 0 0 0 0 0 0 0 0 0 0 0 0 0 0 0 0 127 0"/><feOffset dy="1"/><feGaussianBlur stdDeviation="1"/><feColorMatrix values="0 0 0 0 0.0627451 0 0 0 0 0.0941176 0 0 0 0 0.156863 0 0 0 0.06 0"/><feBlend in2="BackgroundImageFix" result="effect1_dropShadow_91_25010"/><feColorMatrix in="SourceAlpha" result="hardAlpha" values="0 0 0 0 0 0 0 0 0 0 0 0 0 0 0 0 0 0 127 0"/><feOffset dy="1"/><feGaussianBlur stdDeviation="1.5"/><feColorMatrix values="0 0 0 0 0.0627451 0 0 0 0 0.0941176 0 0 0 0 0.156863 0 0 0 0.1 0"/><feBlend in2="effect1_dropShadow_91_25010" result="effect2_dropShadow_91_25010"/><feBlend in="SourceGraphic" in2="effect2_dropShadow_91_25010" result="shape"/></filter></defs></svg>
